X:1
T:Benedictus - Palestrina
T:#
%%score [ 1 2 3 4 ]
L:1/8
Q:1/4=200
M:none
K:F
V:1 treble nm="S" snm="S"
V:2 treble nm="A" snm="A"
V:3 treble-8 nm="T" snm="T"
V:4 bass nm="B" snm="B"
V:1
"^Benedictus""^G. P. da Palestrina\n(1526-94)" F16 | G8 A8 | A4 A8 A4 | A8 B8 | A4 (A8 G2 F2 | %5
w: Be-|ne- di-|ctus Do- mi-|nus De-|us Is\- * *|
 G8) G8 |[M:4/2] A8 z4 A4- | A4 A4 A4 A4 | A8 A4 A4 | G8 ^F4 F4 | G4 A4 B8 | A8 G4 F4 | E8 D8 | %13
w: * ra-|el, qui\-|* a vi- si-|ta- vit, et|fe- cit re-|dem- pti- o-|nem ple- bis|su- ae,|
 z4 F4 G4 A4 | B8 A4 G4- | G4 F4 G8 | ^F16 ||[Q:1/4=130][Q:1/4=130][Q:1/4=130][Q:1/4=130] z24 | %18
w: re- dem- pti-|o- nem ple\-|* bis su-|ae.||
 z22 ||[M:4/2][Q:1/4=200][Q:1/4=200][Q:1/4=200][Q:1/4=200] F16 | G8 A8 | A12 A4 | A8 A8 | %23
w: |Si-|cut lo-|cu- tus|est per|
 B8 A4 (A4- | A2 GF G4) A8- | A8 z4 A4- | A4 A4 A6 A2 | G8 ^F8 | G4 A4 B8 | A8 (G6 F2 | %30
w: os san- cto\-|* * * * rum,|* qui|* a sae- cu-|lo sunt,|pro- phe- ta-|rum e\- *|
 E8) D4 G4- | G4 A4 B8- | B4 A4 (A8- | A4 G2 F2 G8) | ^F16 || %35
w: * ius, pro\-|* phe- ta\-|* rum e\-||ius.|
[M:4/2][Q:1/4=130][Q:1/4=130][Q:1/4=130][Q:1/4=130] z22 | z26 || %37
w: ||
[M:4/2][Q:1/4=200][Q:1/4=200][Q:1/4=200][Q:1/4=200] F8 F4 F4 | G8 A8 | A8 A4 A4 | A12 A4 | A8 A8 | %42
w: Ad fa- ci-|en- dam|mi- se- ri-|cor- di-|am cum|
 B12 A4 | A4 (A8 G2 F2 | G16) | A8 z4 A4 | A4 A4 G8 | ^F8 G4 A4 | B8 A8 | G4 F4 E8 | D8 z8 | %51
w: pa- tri-|bus no\- * *||stris: et|me- mo- ra-|ri te- sta-|men- ti|su- i san-|cti,|
 z4 G4 A8 | B4 B4 B4 A4 | G16 | ^F16 ||[M:4/2][Q:1/4=130][Q:1/4=130][Q:1/4=130][Q:1/4=130] z18 | %56
w: te- sta-|men- ti su- i|san-|cti.||
 z30 ||[M:4/2][Q:1/4=200][Q:1/4=200][Q:1/4=200][Q:1/4=200] F16 | G8 A8- | A4 A4 A8 | A8 z4 A4 | %61
w: |Ut|si- ne|* ti- mo-|re, de|
 A8 A4 A4 | A4 A4 A8 | A4 A4 B8 | A8 A4 G4 | A8 F4 G4- | G4 A4 B8 | A12 (G4- | G2 F2 F2 ED E8) | %69
w: ma- nu i-|ni- mi- co-|rum no- stro-|rum li- be-|ra- ti, ser\-|* vi- a-|mus il\-||
 ^F16 ||[M:4/2][Q:1/4=130][Q:1/4=130][Q:1/4=130][Q:1/4=130] z30 | z18 || %72
w: li.|||
[M:4/2][Q:1/4=200][Q:1/4=200][Q:1/4=200][Q:1/4=200] F16 | G8 A8 | A12 A4 | A8 A4 A4 | B12 B4 | %77
w: Et|tu pu-|er, Pro-|phe- ta Al-|tis- si-|
 A8 A4 (A4- | A4 G2 F2 G4) G4 | A8 z4 A4 | A4 A4 A8 | A4 A4 A4 A4- | A2 A2 A4 G8- | G4 ^F4 F4 F4 | %84
w: mi vo- ca\-|* * * * be-|ris: prae-|i- bis e-|nim an- te fa\-|* ci- em Do\-|* mi- ni pa-|
 G4 A4 B8 | A8 (G6 F2 | E8) D8 | z4 F4 G4 A4 | B8 A8 | G16 | ^F16 || %91
w: ra- re vi-|as e\- *|* ius,|pa- ra- re|vi- as|e-|ius.|
[Q:1/4=130][Q:1/4=130][Q:1/4=130][Q:1/4=130] z30 | z28 || %93
w: ||
[M:4/2][Q:1/4=200][Q:1/4=200][Q:1/4=200][Q:1/4=200] F16 | G6 G2 A8 | z4 A4 A4 A4 | A12 A4 | %97
w: Per|vi- sce- ra|mi- se- ri-|cor- di-|
 A8 B4 A4 | G8 A8- | A16 | z4 A4 A8 | A4 A8 A4 | G6 G2 ^F4 G4- | G4 A4 B8- | B4 A4 (B4 A2 G2 | %105
w: ae De- i|no- stri:||in qui-|bus vi- si-|ta- vit nos, o\-|* ri- ens|* ex al\- * *|
 A2 G2 G8 F4) | G12 G4 | G16 | ^F16 ||[M:4/2][Q:1/4=130][Q:1/4=130][Q:1/4=130][Q:1/4=130] z42 || %110
w: |to, ex|al-|to.||
[M:4/2][Q:1/4=200][Q:1/4=200][Q:1/4=200][Q:1/4=200] A8 A4 A4 | A8 A4 A4- | A4 A4 G8 | F4 F4 G4 A4 | %114
w: Ad di- ri-|gen- dos pe\-|* des no-|stros in vi- am|
 (B8 A8) | (G4 F4)[Q:1/4=197] E8 |[Q:1/4=194] z4[Q:1/4=192] D4[Q:1/4=189] E4[Q:1/4=187] F4 | %117
w: pa\- *|* * cis,|in vi- am|
[Q:1/4=182] G16- |[Q:1/4=173] G16 |[Q:1/4=170] ^F16 |] %120
w: pa\-||cis.|
V:2
 D16 | D8 F8 | F4 F8 F4 | F8 G8 | F8 (F8- | F4 E2 D2 E4) E4 |[M:4/2] F8 z4 F4- | F4 F4 F4 F4 | %8
w: Be-|ne- di-|ctus Do- mi-|nus De-|us Is\-|* * * * ra-|el, qui\-|* a vi- si-|
 F8 F4 F4 | D8 D8- | D4 C4 D4 E4 | F4 F4 E4 D4- | D4 ^C4 D4 G,4 | A,4 A,4 C8 | F8 F4 D4 | D16 | %16
w: ta- vit et|fe- cit|* re- dem- pti-|o- nem ple- bis|* su- ae, re-|dem- pti- o-|nem ple- bis|su-|
 D16 || z24 | z22 ||[M:4/2] D16 | D8 F8 | F12 F4 | F8 E8 | G8 F8 | (E4 D4 E8) | F8 z4 F4- | %26
w: ae.|||Si-|cut lo-|cu- tus|est per|os san-|cto\- * *|rum, qui|
 F4 F4 F6 F2 | D8 D8 | D4 C4 D4 E4 | (F4 E2 D2 E4 D4- | D4 C4) D8 | z4 D8 E4 | F8 F8 | D16 | D16 || %35
w: * a sae- cu-|lo sunt,|pro- phe- ta- rum|e\- * * * *|* * ius,|pro- phe-|ta- rum|e-|ius.|
[M:4/2] z22 | z26 ||[M:4/2] D8 D4 D4 | D8 F8 | F8 F4 F4 | F12 E4 | E8 ^F8 | G12 =F4 | F8 z4 (F4- | %44
w: ||Ad fa- ci-|en- dam|mi- se- ri-|cor- di-|am cum|pa- tri-|bus no\-|
 F4 E2 D2 E8) | F8 z4 F4 | F4 F4 D8 | D8 D4 C4 | D4 E4 F8 | E4 (D8 C4) | D4 D4 E4 (F4- | %51
w: |stris: et|me- mo- ra-|ri te- sta-|men- ti su-|i san\- *|cti, te- sta- men\-|
 F4 E2 D2 E4) F4 | G4 D4 D8- | D8 D8- | D16 ||[M:4/2] z18 | z30 ||[M:4/2] D16 | D8 F8- | F4 F4 F8 | %60
w: * * * * ti|su- i san\-|* cti.||||Ut|si- ne|* ti- mo-|
 E8 z4 E4 | E8 F4 F4 | F4 F4 F8 | F4 F4 F8- | F4 F4 E4 D4 | E8 D8 | z4 D8 E4 | F8 F4 (E4- | %68
w: re, de|ma- nu i-|ni- mi- co-|rum no- stro\-|* rum li- be-|ra- ti,|ser- vi-|a- mus il\-|
 E2 D2 D8 ^C4) | D16 ||[M:4/2] z30 | z18 ||[M:4/2] D16 | D8 F8 | F12 F4 | E8 F4 F4 | G8 F8 | %77
w: |li.|||Et|tu pu-|er, Pro-|phe- ta Al-|tis- si-|
 F8 F4 (F4- | F4 E2 D2 E4) E4 | F8 z4 F4 | F4 F4 F8 | F4 F4 F4 F4- | F2 F2 F4 D8- | D4 D4 D8- | %84
w: mi vo- ca\-|* * * * be-|ris: prae-|i- bis e-|nim an- te fa\-|* ci- em Do\-|* mi- ni|
 D4 C4 D4 E4 | F8 E4 (D4- | D4 C4) D4 G,4 | A,4 A,4 C8 | F16 | D16 | D16 || z30 | z28 || %93
w: * pa- ra- re|vi- as e\-|* * ius, pa-|ra- re vi-|as|e-|ius.|||
[M:4/2] D16 | D6 D2 F8 | z4 F4 F4 F4 | F12 E4 | E8 (G4 F2 E2 | D4) E4 (F8 | E8) F8 | z4 F4 E8 | %101
w: Per|vi- sce- ra|mi- se- ri-|cor- di-|ae De\- * *|* i no\-|* stri:|in qui-|
 F4 F8 F4 | D6 D2 D8 | z4 D8 E4 | (F12 E2 D2 | _E4) E4 (E4 D2 C2 | B,8) C4 _E4 | D16 | D16 || %109
w: bus vi- si-|ta- vit nos,|o- ri-|ens * *|* ex al\- * *|* to, ex|al-|to.|
[M:4/2] z42 ||[M:4/2] F8 F4 F4 | F8 F4 F4- | F4 F4 D8 | D12 C4 | D4 E4 (F2 E2 D2 C2) | %115
w: |Ad di- ri-|gen- dos pe\-|* des no-|stros in|vi- am pa\- * * *|
 (B,2 C2 D8 C4) | D8 z8 | B,8 C4 D4 | (_E8 D8) | D16 |] %120
w: |cis,|in vi- am|pa\- *|cis.|
V:3
 z8 B8- | B8 c8 | d8 d4 d4- | d2 d2 d4 d8- | d8 c8 | c12 c4 |[M:4/2][K:treble-8] c8 z4 c4 | %7
w: Be\-|* ne-|di- ctus Do\-|* mi- nus De\-|* us|Is- ra-|el, qui-|
 c4 c4 c4 c4 | c8 c4 c4 | B8 A4 A4 | B4 (A4 G8) | F8 c4 d4 | A8 B4 B4 | c4 d4 e8 | d8 c4 B4 | %15
w: a vi- si- ta-|vit et fe-|cit re- dem-|pti- o\- *|nem ple- bis|su- ae, re-|dem- pti- o-|nem ple- bis|
 (A8 B8) | A16 || B2 B2 B2 B2 B2 B2 B2 G2 B2 c2 B4 | B2 B2 B2 B2 B2 B2 A2 B2 G2 F4 || %19
w: su\- *|ae.|Et e- re- xit cor- nu sa- lu- tis no- bis:|in do- mo Da- vid pu- e- ri su- i.|
[M:4/2][K:treble-8] z8 B8- | B8 c8 | d8 d4 d4 | d8 ^c8 | d16 | c4 (d8 ^c4) | d8 z4 d4- | %26
w: Si\-|* cut|lo- cu- tus|est per|os|san- cto\- *|rum, qui|
 d4 d4 c6 c2 | B8 A8 | B4 A4 G4 G4 | (F2 G2 A2 B2 c4 G4) | A8 z4 B4- | B4 A4 (G2 A2 B2 c2 | %32
w: * a sae- cu-|lo sunt,|pro- phe- ta- rum|e\- * * * * *|ius, pro\-|* phe- ta\- * * *|
 d12) c4 | B16 | A16 || B2 B2 B2 B2 B2 B2 G2 B2 c2 B4 | B2 B2 B2 B2 B2 B2 B2 B2 A2 B2 G2 F4 || %37
w: * rum|e-|ius.|Sa- lu- tem ex i- ni- mi- cis no- stris:|et de ma- nu o- mni- um qui o- de- runt nos.|
[M:4/2][K:treble-8] z8 z4 B4 | B4 B4 c8 | d4 d4 d4 d4 | d12 ^c4 | ^c8 d8 | d12 d4 | d8 c8- | c16 | %45
w: Ad|fa- ci- en-|dam mi- se- ri-|cor- di-|am cum|pa- tri-|bus no\-||
 c8 z4 c4 | c4 c4 B8 | A8 B4 A4 | G8 F8 | c4 d4 A8 | d4 B8 c4 | d8 c8 | (d2 c2 B2 A2 G4) A4 | B16 | %54
w: stris: et|me- mo- ra-|ri te- sta-|men- ti|su- i san-|cti, te- sta-|men- ti|su\- * * * * i|san-|
 A16 || B2 B2 B2 B2 G2 B2 c2 B4 | B2 B2 B2 B2 B2 B2 B2 B2 B2 B2 A2 B2 G2 F4 || %57
w: cti.|Ius- iu- ran- dum quod iu- ra- vit:|ad A- bra- ham pa- trem no- strum da- tu- rum se no- bis.|
[M:4/2][K:treble-8] z8 B8- | B8 c8 | d4 d4 d8 | ^c8 z4 c4 | ^c8 d4 d4 | =c4 A4 c8 | d4 d4 d8 | %64
w: Ut|* si-|ne ti- mo-|re, de|ma- nu i-|ni- mi- co-|rum no- stro-|
 c4 d4 ^c4 (d4- | d4 ^c4) d4 B4- | B4 A4 (G2 A2 B2 c2 | d8) (c6 B2 | A8) A8 | A16 || %70
w: rum li- be- ra\-|* * ti, ser\-|* vi- a\- * * *|* mus *|* il-|li.|
 B2 B2 B2 B2 B2 B2 B2 B2 B2 B2 G2 B2 c2 B4 | B2 B2 B2 B2 A2 B2 G2 F4 ||[M:4/2][K:treble-8] z8 B8- | %73
w: In san- cti- ta- te et iu- sti- ti- a co- ram i- pso:|o- mni- bus di- e- bus no- stris.|Et|
 B8 c8 | d8 d4 d4 | ^c8 d4 d4- | d4 _e8 d4 | c8 c8 | c12 c4 | c8 z4 c4 | c4 c4 c8 | c4 c4 d4 c4- | %82
w: * tu|pu- er, Pro-|phe- ta Al\-|* tis- si-|mi vo-|ca- be-|ris: prae-|i- bis e-|nim an- te fa\-|
 c2 c2 c4 B8- | B4 A4 A4 A4 | B4 A4 G8 | F8 G8 | A8 z4 B4 | c4 d4 e8 | d4 (d8 c4 | B16) | A16 || %91
w: * ci- em Do\-|* mi- ni pa-|ra- re vi-|as e-|ius, pa-|ra- re vi-|as e\- *||ius.|
 B2 B2 B2 B2 B2 B2 B2 B2 B2 B2 G2 B2 c2 B4 | B2 B2 B2 B2 B2 B2 B2 B2 B2 A2 B2 G2 F4 || %93
w: Ad dan- dam sci- en- ti- am sa- lu- tis ple- bi e- ius:|in re- mis- si- o- nem pec- ca- to- rum e- o- rum.|
[M:4/2][K:treble-8] z8 B8- | B8 c6 c2 | d4 d4 d4 d4 | d12 ^c4 | ^c8 d8 | B8 (c4 d4- | d4 ^c4) d8 | %100
w: Per|* vi- sce-|ra mi- se- ri-|cor- di-|ae De-|i no\- *|* * stri:|
 z4 d4 ^c8 | d4 d8 c4 | B6 B2 A4 B4- | B4 A4 (G2 A2 B2 c2 | d12 c2 B2 | c4) c4 A8 | %106
w: in qui-|bus vi- si-|ta- vit nos, o\-|* ri- ens * * *||* ex al-|
 G4 _e4 (e2 d2 c4- | c4 B2 A2 B8) | A16 || %109
w: to, ex al\- * *||to.|
 B2 B2 B2 B2 B2 B2 B2 G2 B2 c2 B4 B2 B2 B2 B2 A2 B2 G2 F4 ||[M:4/2][K:treble-8] c8 c4 c4 | %111
w: Il- lu- mi- na- re his qui in te- ne- bris et in um- bra mor- tis se- dent:|Ad di- ri-|
 c8 c4 d4- | d4 c4 B8 | A4 A4 B4 A4 | G8 F8 | z4 F4 G4 A4 | (B8 A8) | G4 _e4 e4 d4 | (c8 B8) | %119
w: gen- dos pe\-|* des no-|stros in vi- am|pa- cis,|in vi- am|pa\- *|cis, in vi- am|pa\- *|
 A16 |] %120
w: cis.|
V:4
 B,16 | G,8 F,8 | D,4 D,8 D,4 | D,8 G,8 | (D,6 E,2 F,8) | C,12 C,4 |[M:4/2] F,8 z4 F,4- | %7
w: Be-|ne- di-|ctus Do- mi-|nus De-|us * *|Is- ra-|el, qui\-|
 F,4 F,4 F,4 F,4 | F,8 F,4 F,4 | G,8 D,8 | z16 | z16 | z8 G,8 | F,4 D,4 C,8 | %14
w: * a vi- si-|ta- vit et|fe- cit|||re-|dem- pti- o-|
 (B,,2 C,2 D,2 E,2 F,4) G,4 | D,8 G,8 | D,16 || z24 | z22 ||[M:4/2] B,16 | G,8 F,8 | D,12 D,4 | %22
w: nem * * * * ple-|bis su-|ae.|||Si-|cut lo-|cu- tus|
 D,8 A,8 | G,8 (D,2 E,2 F,2 G,2 | A,4 B,4) A,8 | D,8 z4 D,4- | D,4 D,4 F,6 F,2 | G,8 D,8 | z16 | %29
w: est per|os san\- * * *|* * cto-|rum, qui|* a sae- cu-|lo sunt,||
 z16 | z8 G,8- | G,4 ^F,4 G,8 | (D,6 E,2 F,8) | G,16 | D,16 ||[M:4/2] z22 | z26 || %37
w: |pro\-|* phe- ta-|rum * *|e-|ius.|||
[M:4/2] B,8 B,4 B,4 | G,8 F,8 | D,8 D,4 D,4 | D,12 A,4 | A,8 D,8 | G,12 D,4 | (D,6 E,2 F,8) | %44
w: Ad fa- ci-|en- dam|mi- se- ri-|cor- di-|am cum|pa- tri-|bus * *|
 C,16 | F,8 z4 F,4 | F,4 F,4 G,8 | D,8 z8 | z16 | z16 | z4 G,8 A,4 | B,8 A,8 | G,12 ^F,4 | G,16 | %54
w: no-|stris: et|me- mo- ra-|ri|||te- sta-|men- ti|su- i|san-|
 D,16 ||[M:4/2] z18 | z30 ||[M:4/2] B,16 | G,8 F,8 | D,8 D,8 | A,8 z4 A,4 | A,8 D,4 D,4 | %62
w: cti.|||Ut|si- ne|ti- mo-|re, de|ma- nu i-|
 F,4 F,4 F,8 | D,4 D,4 (B,,2 C,2 D,2 E,2) | F,4 D,4 A,4 B,4 | A,8 D,4 G,4- | G,4 ^F,4 G,8 | %67
w: ni- mi- co-|rum no- stro\- * * *|* rum li- be-|ra- ti, ser\-|* vi- a-|
 (D,6 E,2 F,4 C,4) | (D,8 A,,8) | D,16 ||[M:4/2] z30 | z18 ||[M:4/2] B,16 | G,8 F,8 | D,8 z4 D,4 | %75
w: mus * * *|il\- *|li.|||Et|tu pu-|er, Pro-|
 A,8 D,4 D,4 | (G,6 A,2 B,4) B,4 | F,8 F,8 | C,12 C,4 | F,8 z4 F,4 | F,4 F,4 F,8 | %81
w: phe- ta Al-|tis\- * * si-|mi vo-|ca- be-|ris: prae-|i- bis e-|
 F,4 F,4 D,4 F,4- | F,2 F,2 F,4 G,8- | G,4 D,4 D,8 | z16 | z16 | z8 G,8 | F,4 D,4 C,8 | %88
w: nim an- te fa\-|* ci- em Do\-|* mi- ni|||pa-|ra- re vi-|
 (B,,2 C,2 D,2 E,2 F,8) | G,16 | D,16 || z30 | z28 ||[M:4/2] B,16 | G,6 G,2 F,8 | z4 D,4 D,4 D,4 | %96
w: as * * * *|e-|ius.|||Per|vi- sce- ra|mi- se- ri-|
 D,12 A,4 | A,8 G,4 D,4 | G,8 (F,6 G,2 | A,8 D,8) | z4 D,4 A,8 | D,4 D,8 F,4 | G,6 G,2 D,4 G,4- | %103
w: cor- di-|ae De- i|no- stri: *||in qui-|bus vi- si-|ta- vit nos, o\-|
 G,4 F,4 (G,6 F,E, | D,8) z8 | z4 C,8 D,4 | _E,8 C,8 | G,16 | D,16 ||[M:4/2] z42 || %110
w: * ri- ens, * *||o- ri-|ens ex|al-|to.||
[M:4/2] F,8 F,4 F,4 | F,8 F,4 D,4- | D,4 F,4 G,8 | D,8 z8 | z16 | z16 | B,,8 C,4 D,4 | %117
w: Ad di- ri-|gen- dos pe\-|* des no-|stros|||in vi- am|
 (_E,6 D,2 C,4 =B,,4 | C,8 G,8) | D,16 |] %120
w: pa\- * * *||cis.|

